assets/images/mains-pic.svg

<svg fill="none" height="110" viewBox="0 0 115 110" width="115" xmlns="http://www.w3.org/2000/svg"><g fill="#c37e3f"><path d="m53.1228 71.1171c2.264 2.2346 6.6894 3.5388 9.73 3.0369 3.4912-.5751 11.7081-6.2534 13.0123-9.587.1978-.5056 1.5093-6.1985 1.524-6.5391.0146-.3407-2.1468-6.3999-2.363-6.7773-2.0698-3.5901-10.9021-8.5246-15.038-8.8177-10.3087-.7363-15.9651 14.855-11.3456 22.8081.3517.6045 4.0262 5.4255 4.4841 5.8797zm13.4667-.5459c-6.1728 3.0773-11.4077.392-15.8074-4.744-1.546-1.8061-2.2641-4.103-2.3594-6.3816-.1539-3.7183 1.2016-7.4403 3.374-10.382 1.0916-1.48 2.4216-2.7732 3.9858-3.7806.8939-.5751 1.4617-1.0953 2.5864-1.1943 1.2932-.1135 2.6155.099 3.8684.4909 1.773.5569 3.4179 1.469 5.0518 2.3702 1.5496.8609 3.2201 1.8061 4.2495 3.2861.9305 1.3371 1.6963 3.0955 2.2165 4.6158 1.0916 3.1908 1.3883 7.0923-.3957 9.979-.6484 1.0478-5.5208 5.1178-6.7663 5.7369z"/><path d="m92.7244 14.0746c1.6888 3.352.3883 9.0522-2.0368 11.503-2.5571 2.5863-10.2024 3.2897-13.8108 6.2497-1.7731 1.4544-2.8099 3.7183-3.1872 5.986-.2638 1.5935-.5056 5.7148 1.3077 6.638.2931.1502.6998.1245.8756-.1502.088-.1356.1062-.3077.1172-.4726.1099-1.7474-.3406-3.5498.0478-5.2533.326-1.4433 1.2235-2.6632 2.1613-3.7879.7034-.8426 1.4653-1.6778 2.4581-2.1357 1.6265-.7547 3.6194-.4616 5.3668-.8316 2.0478-.4323 4.0078-1.3335 5.6013-2.7146 3.8649-3.3483 4.3008-8.7078 2.9307-13.5691-.3773-1.3335-.2234-1.7474-1.8352-1.4617z"/><path d="m14.7858 35.4981c.0366.0806.0806.1538.1356.2125.1831.1978.5056.2417.6924.0732.1905-.1758.1831-.4872.1721-.7583-.022-.5605.011-1.121.0915-1.6705.0697-.4652.1868-.9451.4909-1.2822.6301-.696 1.9271-.5788 2.8099-.652 2.5388-.2089 4.8062 1.0074 6.6306 2.8904 1.9416 2.0002 3.385 4.4473 4.92 6.7552 1.403 2.1138 2.9343 4.407 5.092 5.7735.9818.6228 2.0846.9928 3.2165 1.0294.6375.022 1.2711-.0586 1.8829-.2088.348-.0843.6888-.1942 1.0258-.3187.1979-.0733.9561-.2638 1.0404-.4543.9488-2.1211-4.9566.414-7.9898-2.8098-.762-.8096-5.9309-7.9275-7.2094-9.5321-.1576-.1978-.3188-.392-.4873-.5825-2.0661-2.3482-5.1435-4.6671-8.239-4.8686-1.2895-.0842-2.5167.3334-3.2897 1.3884-.4543.6191-.718 1.3738-.8718 2.1431-.1246.6191-.4506 2.1431-.1172 2.8721z"/><path d="m45.0895 5.98604c-.0147.07693-.0001.19049.0585.35534.1429.40297.5971.70337.9012.96347.6007.52019 1.2053 1.04039 1.7805 1.59356 1.1356 1.0807 2.2968 2.13209 3.3482 3.31539 1.5313 1.7254 2.2529 4.1615 2.3738 6.4255.0477.8975.055 1.7951.022 2.6853-.022.6044-.0658 1.2199-.2783 1.773-.1905.4946-.502.9195-.7438 1.3848-.6008 1.1686-.7143 2.5497-.7033 3.8941.011 1.4251.1612 2.9014.8463 4.1653.6374 1.1759 1.0549 2.2859 2.132 3.1029.4029.304.806.5385 1.2786.6777.2271.0659 1.6302.403 1.1357-.1758-1.132-1.3225-2.3776-2.3263-3.0297-4.0114-.4872-1.2602-.5862-2.6084-.469-3.9272.2235-2.5387 1.1101-4.9419 1.502-7.4586.4323-2.7805.1503-5.5756-1.3297-8.0814-1.2016-2.0368-2.949-3.81721-4.8686-5.1287-.9892-.67772-2.0295-1.1796-3.1542-1.54227-.3443-.10991-.7547-.2711-.806-.00733z"/><path d="m89.1374 69.2083 5.6086 2.623c6.089 3.9125 2.7256 12.4737 7.587 17.2105 2.799 2.7219 5.77 3.2091 9.536 2.9527 1.586-1.2822-5.961-4.2276-6.452-4.5463-5.8134-3.7366-3.458-6.6893-5.092-11.8913-1.0694-3.4032-7.4032-7.7627-11.1838-6.3523z"/><path d="m52.4931 79.6489c.1209 1.5936 1.4434 2.4618 1.9013 4.114 2.0112 7.2938-4.3412 9.7446-4.6819 15.1993-.2308 3.6598.1576 8.2868 3.7916 10.5398.403-3.473-1.4067-6.895-.9854-10.3822.4616-3.7843 4.6634-7.5393 4.3667-12.1441-.0733-1.1576-3.0406-8.8104-4.3887-7.3268z"/><path d="m38.1794 64.8089c-.2418 8.7115-10.0815 5.4364-15.811 5.9713-3.3886.315-7.7738 5.7002-5.9165 9.4881 1.3994-1.5716 4.9456-6.704 6.8579-7.2571 4.1763-1.209 9.1219 2.2969 13.9868-2.0625 1.3188-1.1833 5.4657-6.8615.8828-6.1398z"/><path d="m73.8355 75.9232c.5678 1.6265 2.4508 1.1319 3.4802 2.557 1.5532 2.1431 2.6597 7.0813 2.3007 9.6346-.1832 1.2969-1.198 2.308-1.264 3.4766-.1868 3.3263 5.3083 10.5946 9.1658 10.7596 1.077-.964-5.5574-6.8142-6.0592-8.2905-.9415-2.7658.5531-4.9858.2014-7.8543-.37-3.0149-3.6633-11.3821-7.8249-10.283z"/><path d="m.00008774 53.0418c2.83911226-.1282 6.41448226-2.4874 9.16933226-2.4801 2.56438.0037 4.94568 2.6193 7.15468 3.7879 2.927 1.5496 6.6489 1.0551 9.4917-.0915.1795-.0733.37-.1612.447-.3407.1428-.3298-.2234-.7217-.5825-.7693-.359-.0477-.696.1245-1.0294.2381-5.169 1.806-8.869-4.6855-13.723-5.0811-2.63025-.2162-9.44057 2.2823-10.92423408 4.7367z"/><path d="m88.2218 54.7307c-.2089.1026-.4176.2052-.6265.3114-.7839.392-1.5679.7876-2.3518 1.1796-.1502.0769-.3077.1539-.3993.2784-.2198.2968.0623.7364.4909.8976.4286.1611.9195.0952 1.3115-.0586.392-.1539.7142-.392 1.0732-.5899 1.2126-.6667 2.777-.8425 4.3083-.74 1.6338.1063 2.4947.5825 3.8612 1.2969 2.6999 1.414 5.3847 3.3373 8.6457 3.7073 3.432.392 8.913-1.077 9.111-4.1396-5.14 3.0406-7.668 2.6413-13.606.2051-3.0517-1.2528-5.8322-4.0846-9.4553-3.242-.8499.1978-1.6193.5312-2.3629.8938z"/><path d="m38.0881 84.5837c-6.246 4.8247-11.5322 5.7259-7.8249 16.2693 4.1653-.821.6594-7.7409 1.8684-10.7119 1.0404-2.5497 7.7626-3.2311 8.1545-7.3084-1.6521-.4726-1.5238 1.2308-2.2016 1.7547z"/><path d="m70.4763.00366695 1.2199 4.08099305c.7877 4.88693-5.0518 6.96044-5.2276 11.57624-.0989 2.6523 1.0074 4.3887 2.8391 6.1948 1.3591.2344-.5752-4.9309-.6375-5.3229-.7583-4.6562 1.7988-4.7551 3.6745-7.90922 1.2272-2.06248.5568-7.27912-1.8684-8.62358z"/><path d="m97.373 41.4913c1.894-.3554 4.158-2.2603 6.001-2.5167 1.714-.2382 3.451 1.2748 4.993 1.8426 2.044.7547 4.506.0733 6.341-.9598.114-.0659.238-.1428.279-.2674.076-.2308-.191-.4579-.433-.4579s-.458.1465-.674.2564c-3.352 1.6888-6.191-2.2713-9.455-2.0771-1.769.1062-6.1911 2.4068-7.052 4.1799z"/></g></svg>

<svg width="115" height="110" viewBox="0 0 115 110" fill="none" xmlns="http://www.w3.org/2000/svg">
<path d="M53.1228 71.1171C55.3868 73.3517 59.8122 74.6559 62.8528 74.154C66.344 73.5789 74.5609 67.9006 75.8651 64.567C76.0629 64.0614 77.3744 58.3685 77.3891 58.0279C77.4037 57.6872 75.2423 51.628 75.0261 51.2506C72.9563 47.6605 64.124 42.726 59.9881 42.4329C49.6794 41.6966 44.023 57.2879 48.6425 65.241C48.9942 65.8455 52.6687 70.6665 53.1266 71.1207L53.1228 71.1171ZM66.5895 70.5712C60.4167 73.6485 55.1818 70.9632 50.7821 65.8272C49.2361 64.0211 48.518 61.7242 48.4227 59.4456C48.2688 55.7273 49.6243 52.0053 51.7967 49.0636C52.8883 47.5836 54.2183 46.2904 55.7825 45.283C56.6764 44.7079 57.2442 44.1877 58.3689 44.0887C59.6621 43.9752 60.9844 44.1877 62.2373 44.5796C64.0103 45.1365 65.6552 46.0486 67.2891 46.9498C68.8387 47.8107 70.5092 48.7559 71.5386 50.2359C72.4691 51.573 73.2349 53.3314 73.7551 54.8517C74.8467 58.0425 75.1434 61.944 73.3594 64.8307C72.711 65.8785 67.8386 69.9485 66.5931 70.5676L66.5895 70.5712Z" fill="#C37E3F"/>
<path d="M92.7244 14.0746C94.4132 17.4266 93.1127 23.1268 90.6876 25.5776C88.1305 28.1639 80.4852 28.8673 76.8768 31.8273C75.1037 33.2817 74.0669 35.5456 73.6896 37.8133C73.4258 39.4068 73.184 43.5281 74.9973 44.4513C75.2904 44.6015 75.6971 44.5758 75.8729 44.3011C75.9609 44.1655 75.9791 43.9934 75.9901 43.8285C76.1 42.0811 75.6495 40.2787 76.0379 38.5752C76.3639 37.1319 77.2614 35.912 78.1992 34.7873C78.9026 33.9447 79.6645 33.1095 80.6573 32.6516C82.2838 31.8969 84.2767 32.19 86.0241 31.82C88.0719 31.3877 90.0319 30.4865 91.6254 29.1054C95.4903 25.7571 95.9262 20.3976 94.5561 15.5363C94.1788 14.2028 94.3327 13.7889 92.7209 14.0746H92.7244Z" fill="#C37E3F"/>
<path d="M14.7858 35.4981C14.8224 35.5787 14.8664 35.6519 14.9214 35.7106C15.1045 35.9084 15.427 35.9523 15.6138 35.7838C15.8043 35.608 15.7969 35.2966 15.7859 35.0255C15.7639 34.465 15.7969 33.9045 15.8774 33.355C15.9471 32.8898 16.0642 32.4099 16.3683 32.0728C16.9984 31.3768 18.2954 31.494 19.1782 31.4208C21.717 31.2119 23.9844 32.4282 25.8088 34.3112C27.7504 36.3114 29.1938 38.7585 30.7288 41.0664C32.1318 43.1802 33.6631 45.4734 35.8208 46.8399C36.8026 47.4627 37.9054 47.8327 39.0373 47.8693C39.6748 47.8913 40.3084 47.8107 40.9202 47.6605C41.2682 47.5762 41.609 47.4663 41.946 47.3418C42.1439 47.2685 42.9021 47.078 42.9864 46.8875C43.9352 44.7664 38.0298 47.3015 34.9966 44.0777C34.2346 43.2681 29.0657 36.1502 27.7872 34.5456C27.6296 34.3478 27.4684 34.1536 27.2999 33.9631C25.2338 31.6149 22.1564 29.296 19.0609 29.0945C17.7714 29.0103 16.5442 29.4279 15.7712 30.4829C15.3169 31.102 15.0532 31.8567 14.8994 32.626C14.7748 33.2451 14.4488 34.7691 14.7822 35.4981H14.7858Z" fill="#C37E3F"/>
<path d="M45.0895 5.98604C45.0748 6.06297 45.0894 6.17653 45.148 6.34138C45.2909 6.74435 45.7451 7.04475 46.0492 7.30485C46.6499 7.82504 47.2545 8.34524 47.8297 8.89841C48.9653 9.97911 50.1265 11.0305 51.1779 12.2138C52.7092 13.9392 53.4308 16.3753 53.5517 18.6393C53.5994 19.5368 53.6067 20.4344 53.5737 21.3246C53.5517 21.929 53.5079 22.5445 53.2954 23.0976C53.1049 23.5922 52.7934 24.0171 52.5516 24.4824C51.9508 25.651 51.8373 27.0321 51.8483 28.3765C51.8593 29.8016 52.0095 31.2779 52.6946 32.5418C53.332 33.7177 53.7495 34.8277 54.8266 35.6447C55.2295 35.9487 55.6326 36.1832 56.1052 36.3224C56.3323 36.3883 57.7354 36.7254 57.2409 36.1466C56.1089 34.8241 54.8633 33.8203 54.2112 32.1352C53.724 30.875 53.625 29.5268 53.7422 28.208C53.9657 25.6693 54.8523 23.2661 55.2442 20.7494C55.6765 17.9689 55.3945 15.1738 53.9145 12.668C52.7129 10.6312 50.9655 8.85079 49.0459 7.5393C48.0567 6.86158 47.0164 6.3597 45.8917 5.99703C45.5474 5.88712 45.137 5.72593 45.0857 5.9897L45.0895 5.98604Z" fill="#C37E3F"/>
<path d="M89.1374 69.2083L94.746 71.8313C100.835 75.7438 97.4716 84.305 102.333 89.0418C105.132 91.7637 108.103 92.2509 111.869 91.9945C113.455 90.7123 105.908 87.7669 105.417 87.4482C99.6036 83.7116 101.959 80.7589 100.325 75.5569C99.2556 72.1537 92.9218 67.7942 89.1412 69.2046L89.1374 69.2083Z" fill="#C37E3F"/>
<path d="M52.4931 79.6489C52.614 81.2425 53.9365 82.1107 54.3944 83.7629C56.4056 91.0567 50.0532 93.5075 49.7125 98.9622C49.4817 102.622 49.8701 107.249 53.5041 109.502C53.9071 106.029 52.0974 102.607 52.5187 99.1198C52.9803 95.3355 57.1821 91.5805 56.8854 86.9757C56.8121 85.8181 53.8448 78.1653 52.4967 79.6489H52.4931Z" fill="#C37E3F"/>
<path d="M38.1794 64.8089C37.9376 73.5204 28.0979 70.2453 22.3684 70.7802C18.9798 71.0952 14.5946 76.4804 16.4519 80.2683C17.8513 78.6967 21.3975 73.5643 23.3098 73.0112C27.4861 71.8022 32.4317 75.3081 37.2966 70.9487C38.6154 69.7654 42.7623 64.0872 38.1794 64.8089Z" fill="#C37E3F"/>
<path d="M73.8355 75.9232C74.4033 77.5497 76.2863 77.0551 77.3157 78.4802C78.8689 80.6233 79.9754 85.5615 79.6164 88.1148C79.4332 89.4117 78.4184 90.4228 78.3524 91.5914C78.1656 94.9177 83.6607 102.186 87.5182 102.351C88.5952 101.387 81.9608 95.5368 81.459 94.0605C80.5175 91.2947 82.0121 89.0747 81.6604 86.2062C81.2904 83.1913 77.9971 74.8241 73.8355 75.9232Z" fill="#C37E3F"/>
<path d="M8.7738e-05 53.0418C2.8392 52.9136 6.41457 50.5544 9.16942 50.5617C11.7338 50.5654 14.1151 53.181 16.3241 54.3496C19.2511 55.8992 22.973 55.4047 25.8158 54.2581C25.9953 54.1848 26.1858 54.0969 26.2628 53.9174C26.4056 53.5876 26.0394 53.1957 25.6803 53.1481C25.3213 53.1004 24.9843 53.2726 24.6509 53.3862C19.4819 55.1922 15.7819 48.7007 10.9279 48.3051C8.29765 48.0889 1.48733 50.5874 0.00366592 53.0418H8.7738e-05Z" fill="#C37E3F"/>
<path d="M88.2218 54.7307C88.0129 54.8333 87.8042 54.9359 87.5953 55.0421C86.8114 55.4341 86.0274 55.8297 85.2435 56.2217C85.0933 56.2986 84.9358 56.3756 84.8442 56.5001C84.6244 56.7969 84.9065 57.2365 85.3351 57.3977C85.7637 57.5588 86.2546 57.4929 86.6466 57.3391C87.0386 57.1852 87.3608 56.9471 87.7198 56.7492C88.9324 56.0825 90.4968 55.9067 92.0281 56.0092C93.6619 56.1155 94.5228 56.5917 95.8893 57.3061C98.5892 58.7201 101.274 60.6434 104.535 61.0134C107.967 61.4054 113.448 59.9364 113.646 56.8738C108.506 59.9144 105.978 59.5151 100.04 57.0789C96.9883 55.8261 94.2078 52.9943 90.5847 53.8369C89.7348 54.0347 88.9654 54.3681 88.2218 54.7307Z" fill="#C37E3F"/>
<path d="M38.0881 84.5837C31.8421 89.4084 26.5559 90.3096 30.2632 100.853C34.4285 100.032 30.9226 93.1121 32.1316 90.1411C33.172 87.5914 39.8942 86.91 40.2861 82.8327C38.634 82.3601 38.7623 84.0635 38.0845 84.5874L38.0881 84.5837Z" fill="#C37E3F"/>
<path d="M70.4763 0.00366695L71.6962 4.08466C72.4839 8.97159 66.6444 11.0451 66.4686 15.6609C66.3697 18.3132 67.476 20.0496 69.3077 21.8557C70.6668 22.0901 68.7325 16.9248 68.6702 16.5328C67.9119 11.8766 70.469 11.7777 72.3447 8.62358C73.5719 6.5611 72.9015 1.34446 70.4763 0V0.00366695Z" fill="#C37E3F"/>
<path d="M97.373 41.4913C99.267 41.1359 101.531 39.231 103.374 38.9746C105.088 38.7364 106.825 40.2494 108.367 40.8172C110.411 41.5719 112.873 40.8905 114.708 39.8574C114.822 39.7915 114.946 39.7146 114.987 39.59C115.063 39.3592 114.796 39.1321 114.554 39.1321C114.312 39.1321 114.096 39.2786 113.88 39.3885C110.528 41.0773 107.689 37.1172 104.425 37.3114C102.656 37.4176 98.2339 39.7182 97.373 41.4913Z" fill="#C37E3F"/>
</svg>
